X: 24429
T: Lowlander's
R: jig
M: 6/8
K: Aminor
|:ABc deg|egd cBA|FcF cde-|edc dBc|
ABc deg|ede geg|age ged|ege dcB:|
|:Ace cAe|AfA eAf|Ace AcA|dAc dcB|
Ace cAe|AfA gA^g|age ged|ege dcB:|A6||

